X: 1
T:Paddy Fahy's Jig
M:6/8
L:1/8
N:Usually played in G with f naturals in
N:third measure of B part
K:GDor
F| DGA B2 G|cBc d3|gfd Bcd|cAG FDC|
DGA B2 G|cBc d2 g|gfd Bcd|cAF G2 F|
DGA B2 G|cBc d3|gfd Bcd|cAG FDC|
DGA B2 G|cBc dfa| gfd Bgd| cAF GBd||
|:g2 e fga|gfg Bcd|c2 A fef|agf def|
g2 a bag|fdg fdc|ABG AGF|1 DGF GBd :|2DGF G3 |>|
